X:168
T:Steirer
C:traditionell
R:Steirer
A:Bad Ischl, Salzkammergut
B:"Pfeifermusik aus Bad Ischl", Lois Blamberger, 3. Auflage, Bad Ischl 1990
S:im buch mit der Angabe: aus der Sammlung vom Blamberger Lois
N:im buch in G, nr. 7/1
Z:abc transcription Simon Wascher
M:3/4
L:1/8
K:G
V:1
(dg) |\
(bf) (gBdB) | (cd) (fcdf) | (cd) (fcdf) | (Bd) (gBdg) |\
(bf) (gBdB) | (cd) (fcdf) | (cd) (fcdf) | g2 z2 :|
V:2
(Bd) |\
(gB) (dGBG) | (FA) (dFAd) | (FA) (dFAd) | (gB) (dGBG) |\
(gB) (dGBG) | (FA) (dFAd) | (FA) (dFAd) | B2 z2 :|
